assets/svg/action_wallet_passkey.svg

<svg width="80" height="80" viewBox="0 0 80 80" fill="none" xmlns="http://www.w3.org/2000/svg">
<path d="M53.6781 25.6859H53.2078L53.2141 14.7141C53.2156 11.3062 51.8906 8.10156 49.4812 5.69062C47.0719 3.28125 43.8688 1.95312 40.4609 1.95312H35.2703C32.4625 1.95312 29.7219 2.74219 27.3438 4.23438L25.3859 5.46406C24.9096 5.76376 24.3581 5.92248 23.7953 5.92188C20.7203 5.92188 18.2172 8.42344 18.2172 11.5V25.6859H17.7547C16.5406 25.6859 15.4109 26.2313 14.6547 27.1813C13.8984 28.1313 13.6234 29.3563 13.8969 30.5391L14.325 32.3891C14.7437 34.1937 16.3297 35.4547 18.1812 35.4547H18.6797C19.2547 41.0422 21.8891 46.1797 25.9688 49.9031L26.0312 50.4609C26.1812 51.8172 26.0031 53.2078 25.5141 54.4812C25.4614 54.6179 25.3808 54.7421 25.2775 54.8459C25.1742 54.9498 25.0504 55.031 24.9141 55.0844L12.2344 60.0391C9.19219 61.2281 6.61094 63.2812 4.76875 65.9797C2.92656 68.6766 1.95312 71.8297 1.95312 75.0953V77.5C1.95312 77.8016 2.19844 78.0469 2.5 78.0469C2.80156 78.0469 3.04688 77.8016 3.04688 77.5V75.0953C3.04688 72.05 3.95469 69.1109 5.67188 66.5969C7.38906 64.0813 9.79688 62.1672 12.6328 61.0594L21.9172 57.4313C23.3094 59.9406 25.3078 62 27.725 63.4062C30.1266 64.8047 32.8906 65.5438 35.7156 65.5438C38.5422 65.5438 41.3047 64.8047 43.7062 63.4062C46.1234 62 48.1219 59.9391 49.5141 57.4313L51.0641 58.0359C51.1297 58.0609 51.1969 58.0734 51.2625 58.0734C51.3899 58.0733 51.5133 58.0287 51.6113 57.9473C51.7093 57.8659 51.7759 57.7528 51.7994 57.6275C51.8229 57.5023 51.802 57.3728 51.7402 57.2614C51.6784 57.1499 51.5796 57.0636 51.4609 57.0172L46.5156 55.0844C46.3794 55.0307 46.2557 54.9494 46.1525 54.8456C46.0492 54.7418 45.9686 54.6178 45.9156 54.4812C45.4254 53.2015 45.248 51.8231 45.3984 50.4609L45.4609 49.9016C49.5375 46.1797 52.1703 41.0422 52.7453 35.4547H53.2484C55.1016 35.4547 56.6875 34.1937 57.1047 32.3891L57.5328 30.5391C57.8062 29.3563 57.5312 28.1328 56.775 27.1813C56.0187 26.2297 54.8922 25.6859 53.6781 25.6859ZM19.3109 11.5C19.3109 9.02812 21.3219 7.01562 23.7953 7.01562C24.5637 7.01606 25.3166 6.79941 25.9672 6.39062L27.925 5.16094C30.1256 3.77883 32.6717 3.04604 35.2703 3.04688H40.4609C43.5766 3.04688 46.5063 4.26094 48.7078 6.46406C50.9109 8.66875 52.1219 11.5984 52.1203 14.7141L52.1125 26.2203L52.0672 27.2047L50.3547 26.2234C50.1916 26.1298 50.0561 25.9949 49.9617 25.8322C49.8673 25.6696 49.8175 25.4849 49.8172 25.2969V19.4906C49.8172 17.0734 47.8516 15.1078 45.4344 15.1078H25.9953C23.5781 15.1078 21.6125 17.0734 21.6125 19.4906V25.2969C21.6125 25.6781 21.4062 26.0344 21.075 26.2234L19.3562 27.2078L19.3109 26.2188V11.5ZM18.1828 34.3609C16.8422 34.3609 15.6938 33.4484 15.3906 32.1422L14.9625 30.2922C14.7641 29.4359 14.9641 28.55 15.5109 27.8625C16.0578 27.175 16.875 26.7797 17.7547 26.7797H18.2422L18.5844 34.1828C18.5875 34.2422 18.5922 34.3 18.5953 34.3594H18.1828V34.3609ZM22.9453 57.0281L24.8969 56.2656C25.3656 56.9656 25.8922 57.6109 26.4703 58.1969C25.8734 58.9375 25.7031 59.9062 25.9453 60.775C24.775 59.7234 23.7594 58.4656 22.9453 57.0281ZM44.8953 54.8734C45.0312 55.2266 45.2578 55.5359 45.5469 55.7703C43.3203 59.0219 39.6844 60.9469 35.7141 60.9469C31.7438 60.9469 28.1094 59.0219 25.8813 55.7703C26.1703 55.5359 26.3969 55.2266 26.5328 54.8734C27.0156 53.6187 27.2297 52.2625 27.1625 50.9203C28.3281 51.8453 29.5938 52.6625 30.9469 53.3516C32.4391 54.1125 34.075 54.4922 35.7125 54.4922C37.35 54.4922 38.9859 54.1125 40.4781 53.3516C41.8313 52.6625 43.0969 51.8453 44.2625 50.9203C44.1984 52.2625 44.4141 53.6187 44.8953 54.8734ZM39.9844 52.3781C37.3109 53.7406 34.1203 53.7406 31.4422 52.375C24.5422 48.8594 20.0344 41.8688 19.6766 34.1328L19.4141 28.4375L21.6187 27.1734C22.2891 26.7891 22.7063 26.0703 22.7063 25.2984V19.4922C22.7063 17.6781 24.1812 16.2031 25.9953 16.2031H45.4375C47.2516 16.2031 48.7266 17.6781 48.7266 19.4922V25.2984C48.7266 26.0719 49.1438 26.7891 49.8141 27.1734L52.0141 28.4344L51.7531 34.1297C51.3953 41.8672 46.8875 48.8594 39.9844 52.3781ZM56.4688 30.2922L56.0406 32.1422C55.7375 33.4484 54.5906 34.3609 53.2484 34.3609H52.8312C52.8344 34.3 52.8406 34.2406 52.8422 34.1797L53.1812 26.7812H53.6766C54.5547 26.7812 55.3734 27.1766 55.9203 27.8641C56.4672 28.5516 56.6672 29.4359 56.4688 30.2922Z" fill="#9A9A9A"/>
<path fill-rule="evenodd" clip-rule="evenodd" d="M10.2074 68H36.7936C37.46 68 38 68.7775 38 69.7352V77.2648C38 78.2225 37.459 79 36.7926 79H10.2074C9.54097 79 9 78.2225 9 77.2648V69.7352C9 68.7775 9.54097 68 10.2074 68ZM13 71C12.7239 71 12.5 71.2239 12.5 71.5C12.5 71.7761 12.7239 72 13 72H32C32.2761 72 32.5 71.7761 32.5 71.5C32.5 71.2239 32.2761 71 32 71H13ZM13 75C12.7239 75 12.5 75.2239 12.5 75.5C12.5 75.7761 12.7239 76 13 76H28C28.2761 76 28.5 75.7761 28.5 75.5C28.5 75.2239 28.2761 75 28 75H13Z" fill="#E1EAF8"/>
<path d="M61.1857 72.9046C62.2546 73.6188 63.5113 74 64.7969 74C65.6505 74 66.4958 73.832 67.2844 73.5053C68.073 73.1786 68.7896 72.6998 69.3931 72.0962C69.9967 71.4926 70.4755 70.7761 70.8022 69.9874C71.1288 69.1988 71.2969 68.3535 71.2969 67.4999C71.2969 66.2143 70.9156 64.9576 70.2014 63.8887C69.4871 62.8198 68.472 61.9867 67.2842 61.4948C66.0965 61.0028 64.7896 60.8741 63.5287 61.1249C62.2679 61.3757 61.1097 61.9948 60.2006 62.9038C59.2916 63.8129 58.6726 64.9711 58.4218 66.232C58.171 67.4928 58.2997 68.7998 58.7917 69.9875C59.2836 71.1752 60.1168 72.1903 61.1857 72.9046ZM63.1175 64.9865C63.6146 64.6543 64.199 64.477 64.7969 64.477C65.5986 64.477 66.3675 64.7955 66.9343 65.3624C67.5012 65.9293 67.8197 66.6982 67.8197 67.4999C67.8197 68.0977 67.6424 68.6822 67.3103 69.1793C66.9781 69.6764 66.506 70.0638 65.9537 70.2926C65.4013 70.5214 64.7935 70.5813 64.2072 70.4646C63.6208 70.348 63.0822 70.0601 62.6594 69.6373C62.2367 69.2146 61.9488 68.676 61.8321 68.0896C61.7155 67.5032 61.7754 66.8954 62.0041 66.3431C62.2329 65.7907 62.6204 65.3186 63.1175 64.9865Z" stroke="#0166FF"/>
<path d="M56.7548 61.8644C55.5577 63.5399 54.9166 65.5489 54.9219 67.6081C54.923 72.9934 59.3032 77.4357 64.6863 77.5107C66.9283 77.5425 69.1147 76.8128 70.8883 75.4409C72.6618 74.069 73.9175 72.1361 74.4501 69.958C74.9827 67.78 74.7607 65.4857 73.8204 63.4502C72.8801 61.4147 71.2772 59.7583 69.2735 58.7519C69.2121 58.721 69.1604 58.6736 69.1243 58.615C69.0882 58.5564 69.0691 58.489 69.0691 58.4202V55.5243H68.3883" stroke="#0166FF" stroke-width="1.1" stroke-linecap="round" stroke-linejoin="round"/>
<path d="M68.0154 54V52.4311C68.0115 52.4191 68.0048 52.4083 67.9958 52.3995C67.9868 52.3907 67.9757 52.3843 67.9636 52.3808C67.3864 52.2811 66.8631 51.9806 66.4859 51.5326C66.1086 51.0845 65.9018 50.5177 65.9018 49.9319C65.9018 49.3462 66.1086 48.7793 66.4859 48.3313C66.8631 47.8832 67.3864 47.5828 67.9636 47.483C67.9757 47.4796 67.9867 47.4732 67.9958 47.4644C68.0048 47.4556 68.0115 47.4448 68.0153 47.4328V45.0977C68.0115 45.0857 68.0048 45.0748 67.9957 45.066C67.9867 45.0572 67.9756 45.0508 67.9635 45.0474C67.3863 44.9476 66.863 44.6472 66.4858 44.1991C66.1085 43.7511 65.9016 43.1842 65.9016 42.5985C65.9016 42.0128 66.1085 41.4459 66.4858 40.9978C66.863 40.5498 67.3863 40.2493 67.9635 40.1496C67.9757 40.1462 67.9868 40.1398 67.9959 40.131C68.0049 40.1222 68.0117 40.1112 68.0155 40.0992V36.9616C68.0155 36.9162 68.0043 36.8715 67.9829 36.8315C67.9615 36.7915 67.9305 36.7574 67.8927 36.7322L64.9792 34.7871C64.9339 34.7567 64.8806 34.7406 64.8261 34.7406C64.7716 34.7406 64.7183 34.7567 64.673 34.7871L61.7593 36.7321C61.7216 36.7573 61.6906 36.7914 61.6692 36.8314C61.6478 36.8714 61.6367 36.9161 61.6367 36.9615V54.9782C61.6366 55.1227 61.5791 55.2612 61.477 55.3634C61.3748 55.4655 61.2363 55.523 61.0918 55.5232H60.5846V58.4191C60.5846 58.4879 60.5655 58.5553 60.5294 58.6139C60.4933 58.6725 60.4417 58.7199 60.3802 58.7508C59.6104 59.1384 58.8943 59.6247 58.25 60.1973" stroke="#0166FF" stroke-width="1.1" stroke-linecap="round" stroke-linejoin="round"/>
</svg>

<svg xmlns="http://www.w3.org/2000/svg" width="80" height="80" fill="none"><path fill="#9A9A9A" d="M53.678 25.686h-.47l.006-10.972a12.67 12.67 0 0 0-3.733-9.023 12.67 12.67 0 0 0-9.02-3.738h-5.19c-2.809 0-5.55.79-7.927 2.281l-1.958 1.23a3 3 0 0 1-1.59.458 5.584 5.584 0 0 0-5.579 5.578v14.186h-.462a3.94 3.94 0 0 0-3.1 1.495 3.94 3.94 0 0 0-.758 3.358l.428 1.85a3.94 3.94 0 0 0 3.856 3.066h.499a22.74 22.74 0 0 0 7.289 14.448l.062.558a8.6 8.6 0 0 1-.517 4.02 1.06 1.06 0 0 1-.6.603l-12.68 4.955a16.1 16.1 0 0 0-7.465 5.94 16.1 16.1 0 0 0-2.816 9.116V77.5a.547.547 0 0 0 1.094 0v-2.405c0-3.045.908-5.984 2.625-8.498a15 15 0 0 1 6.96-5.538l9.285-3.628c1.392 2.51 3.39 4.569 5.808 5.975a15.9 15.9 0 0 0 7.99 2.138c2.827 0 5.59-.74 7.991-2.138 2.417-1.406 4.416-3.467 5.808-5.975l1.55.605a.547.547 0 0 0 .397-1.019l-4.945-1.933a1.06 1.06 0 0 1-.6-.603 8.6 8.6 0 0 1-.518-4.02l.063-.56a22.74 22.74 0 0 0 7.284-14.446h.503a3.94 3.94 0 0 0 3.857-3.066l.428-1.85a3.94 3.94 0 0 0-.758-3.358 3.93 3.93 0 0 0-3.097-1.495M19.311 11.5a4.49 4.49 0 0 1 4.484-4.484c.769 0 1.522-.217 2.172-.625l1.958-1.23a13.8 13.8 0 0 1 7.345-2.114h5.19c3.117 0 6.046 1.214 8.248 3.417a11.59 11.59 0 0 1 3.412 8.25l-.008 11.506-.045.985-1.712-.982a1.07 1.07 0 0 1-.538-.926V19.49a4.387 4.387 0 0 0-4.383-4.383H25.995a4.387 4.387 0 0 0-4.382 4.383v5.806c0 .381-.207.737-.538.926l-1.719.985-.045-.99zm-1.128 22.86a2.854 2.854 0 0 1-2.792-2.218l-.428-1.85a2.85 2.85 0 0 1 .548-2.43 2.85 2.85 0 0 1 2.244-1.082h.487l.342 7.403.011.176zm4.762 22.668 1.952-.762q.705 1.051 1.573 1.93a2.88 2.88 0 0 0-.525 2.579 14.9 14.9 0 0 1-3-3.747m21.95-2.155c.136.354.363.663.652.897a11.85 11.85 0 0 1-9.833 5.177 11.85 11.85 0 0 1-9.833-5.177c.29-.234.516-.543.652-.897a9.7 9.7 0 0 0 .63-3.953 22.6 22.6 0 0 0 3.784 2.432c1.492.76 3.128 1.14 4.765 1.14 1.638 0 3.274-.38 4.766-1.14a22.6 22.6 0 0 0 3.785-2.432 9.8 9.8 0 0 0 .632 3.953m-4.91-2.495a9.43 9.43 0 0 1-8.543-.003 21.64 21.64 0 0 1-11.765-18.242l-.263-5.696 2.205-1.264a2.17 2.17 0 0 0 1.087-1.875v-5.806a3.29 3.29 0 0 1 3.29-3.289h19.442a3.29 3.29 0 0 1 3.289 3.29v5.805c0 .774.417 1.491 1.087 1.875l2.2 1.261-.26 5.696a21.64 21.64 0 0 1-11.77 18.248m16.484-22.086-.428 1.85a2.85 2.85 0 0 1-2.793 2.219h-.417c.003-.061.01-.12.011-.181l.34-7.399h.495c.878 0 1.696.396 2.243 1.083.547.688.747 1.572.549 2.428"/><path fill="#E1EAF8" fill-rule="evenodd" d="M10.207 68h26.587c.666 0 1.206.778 1.206 1.735v7.53c0 .957-.541 1.735-1.207 1.735H10.207C9.541 79 9 78.222 9 77.265v-7.53C9 68.778 9.541 68 10.207 68M13 71a.5.5 0 0 0 0 1h19a.5.5 0 0 0 0-1zm0 4a.5.5 0 0 0 0 1h15a.5.5 0 0 0 0-1z" clip-rule="evenodd"/><path stroke="#0166FF" d="M61.186 72.905a6.5 6.5 0 1 0 7.222-10.81 6.5 6.5 0 0 0-7.222 10.81Zm1.931-7.918a3.022 3.022 0 1 1 3.36 5.025 3.022 3.022 0 0 1-3.36-5.025Z"/><path stroke="#0166FF" stroke-linecap="round" stroke-linejoin="round" stroke-width="1.1" d="M56.755 61.864a9.84 9.84 0 0 0-1.833 5.744c.001 5.385 4.381 9.828 9.764 9.903a9.907 9.907 0 0 0 4.587-18.76.37.37 0 0 1-.204-.33v-2.897h-.68M68.015 54v-1.569a.08.08 0 0 0-.051-.05 2.485 2.485 0 0 1 0-4.898.08.08 0 0 0 .051-.05v-2.335a.08.08 0 0 0-.052-.05 2.485 2.485 0 0 1 0-4.898.08.08 0 0 0 .053-.05v-3.138a.28.28 0 0 0-.123-.23l-2.914-1.945a.28.28 0 0 0-.306 0l-2.914 1.945a.28.28 0 0 0-.122.23v18.016a.546.546 0 0 1-.545.545h-.507v2.896a.37.37 0 0 1-.205.332 10 10 0 0 0-2.13 1.446"/></svg>
